X: 1
T:GOOD KING WENCELAS
M:C
L:1/8
Q:80
C:
S:
K:HP
{g}d2{g}d2{e}d2e2|
d2{g}d2A4|
B2A2B2c2|  !
d4{Gdc}d4:|
a2g2f2e2|
f2e2d4|  !
B2A2B2c2|
d4{g}d4|
A2{g}A2B2c2|  !
d2{g}d2e4|
a2g2f2e2|
d4g4|  !
d4-d4|
